svgs/solid/file-plus.svg

<svg xmlns="http://www.w3.org/2000/svg" viewBox="0 0 384 512"><!--! Font Awesome Pro 6.6.0 by @fontawesome - https://fontawesome.com License - https://fontawesome.com/license (Commercial License) Copyright 2024 Fonticons, Inc. --><path d="M64 0C28.7 0 0 28.7 0 64L0 448c0 35.3 28.7 64 64 64l256 0c35.3 0 64-28.7 64-64l0-288-128 0c-17.7 0-32-14.3-32-32L224 0 64 0zM256 0l0 128 128 0L256 0zM192 240c13.3 0 24 10.7 24 24l0 48 48 0c13.3 0 24 10.7 24 24s-10.7 24-24 24l-48 0 0 48c0 13.3-10.7 24-24 24s-24-10.7-24-24l0-48-48 0c-13.3 0-24-10.7-24-24s10.7-24 24-24l48 0 0-48c0-13.3 10.7-24 24-24z"/></svg>

<svg xmlns="http://www.w3.org/2000/svg" viewBox="0 0 384 512"><!--! Font Awesome Pro 6.4.0 by @fontawesome - https://fontawesome.com License - https://fontawesome.com/license (Commercial License) Copyright 2023 Fonticons, Inc. --><path d="M64 0C28.7 0 0 28.7 0 64V448c0 35.3 28.7 64 64 64H320c35.3 0 64-28.7 64-64V160H256c-17.7 0-32-14.3-32-32V0H64zM256 0V128H384L256 0zM192 240c13.3 0 24 10.7 24 24v48h48c13.3 0 24 10.7 24 24s-10.7 24-24 24H216v48c0 13.3-10.7 24-24 24s-24-10.7-24-24V360H120c-13.3 0-24-10.7-24-24s10.7-24 24-24h48V264c0-13.3 10.7-24 24-24z"/></svg>
